!!!OTL: VERSTOHLEN GEHT DER MOND AUF
!!!ARE: Europa, Mitteleuropa, Deutschland,  Niederrhein
!!!SCT: Z0036
!!!YEM: Copyright 1995, estate of Helmut Schaffrath.
**kern
*ICvox
*Ivox
*M2/4
*k[c-e-a-]
*c:
{8G
=1
8c
8d
8e-
8c
=2
8B
8c
8d
8r}
=3
{4c
4g
=4
8f
8g
8c}
{8c
=5
8d
8d
8f
8f
=6
8f
16g
16e-
8d
8r}
=7
{8c
16B
16c
8d
8r
=8
8c
16B
16c
8d
8r}
=9
{4c
8g
8g
=10
8e-
16d
16e-
8c}
==
!!!AGN: Sagen - Lied, Romanze; +++ 265 nach Geh”r ge„ndert. +++
!!!ONB: ESAC (Essen Associative Code) Database: ZUCCAL
!!!AMT: simple duple
!!!AIN: vox
!!!EED: Helmut Schaffrath
!!!EEV: 1.0
*-
